X: 28
T: Missa In feuers hitz / Agnus Dei
N: Derived from Mar1007e-Missa_In_feuers_hitz-Agnus.krn
C: Johannes Martini
%%abc-version 2.0
%%abcx-abcm2ps-target-version 5.9.1 (29 Sep 2008)
%%abc-creator hum2abc beta
%%abcx-conversion-date 2019/02/17 07:19:41
%%abc-edited-by Jesse Rodin
%%abc-edited-by Chris Gage 10-02-2014
%%abcx-initial-encoding-date 2015/03/07/
%%humdrum-veritas 2443680206
%%humdrum-veritas-data 1162142429
%%linebreak <none>
%%barnumbers 0
L: 1/4
M: 3/1
Q: 1/2=120
V: 1 clef=treble
V: 2 clef=treble-8
V: 3 clef=treble-8
K: C
[V:1] c4c6B2 | 
[V:2] c12- | 
[V:3] g8e4- | 
[V:1] A3GG4A4 | 
[V:2] c4e4f4 | 
[V:3] e2c2c3BA4 | 
[V:1] B4A2c2d2f2 | 
[V:2] g4f2e2d4 | 
[V:3] G4z2g4f2 | 
[V:1] e6d2c4 | 
[V:2] c6B2A4 | 
[V:3] g2a3gg4^f2 | 
[V:1] B2G4A2B2G2 | 
[V:2] G4c4d2e2 | 
[V:3] g2e4dcB2c2 | 
[V:1] B4A4z2d2- | 
[V:2] d2g4^f2g4 | 
[V:3] G4d4G4 | 
[V:1] dce3dc3BBA | 
[V:2] f2e2c4d4 | 
[V:3] z2g4a2f3e | 
[V:1] c2G4A2G2E2- | 
[V:2] c12- | 
[V:3] g4z4g4 | 
[V:1] EFG2C2z2c3B/A/ | 
[V:2] c12 | 
[V:3] a2g2e3fg2c2 | 
[V:1] G2A2B2G3FE2 | 
[V:2] z12 | 
[V:3] c3B/A/G3AB2c2- | 
[V:1] D4C4E2F2 | 
[V:2] z4z4c4 | 
[V:3] c2B2c2e4d2 | 
[V:1] G4A4G2c2- | 
[V:2] e4c4e4- | 
[V:3] c3BA4c4 | 
[V:1] cBc2d2cBA4 | 
[V:2] e4f8 | 
[V:3] A2c2_B2c2d4 | 
[V:1] G4F2A4B2 | 
[V:2] g4d8 | 
[V:3] G4z2f4d2 | 
[V:1] A2GFE2A3GB2- | 
[V:2] c8d4 | 
[V:3] e2f2g2e2f3e | 
[V:1] BAG4^F2F3E | 
[V:2] G4A8 | 
[V:3] d6c2c3B | 
[V:1] G4A2G2c2d2 | 
[V:2] G4z2G2A2B2 | 
[V:3] d4f2edc2g2- | 
[V:1] e4c4f4 | 
[V:2] c4e4d4 | 
[V:3] gfe3dc4B2 | 
[V:1] e3d/c/B3cd2c2 | 
[V:2] c4g4f2e2 | 
[V:3] c2A2G4z2c2 | 
[V:1] f2ed2cc4B2 | 
[V:2] d2g2e2f2d4 | 
[V:3] d2G2c2F2G4 | 
[V:1] c12 ||  
[V:2] c12 ||  
[V:3] g12 ||  



